X:202
M:C
L:1/8
K:D
d|A<D A>F A<D D>d|A<D A>F B<E E>d|A<D A>d B>dA>d|
f|d>AF>A D<A d>B|d>AF>A D>AF>A|d<B A>F A<d d>f|
d>AF>A D>Ad>B|A<D A>F E<e e>g|f<A e>f d>B A<F|B/c/d/B/ A<F A<dd||

